svg/au.svg

<?xml version="1.0" encoding="UTF-8"?>
<svg width="1280" height="640" viewBox="0 0 30240 15120" xmlns="http://www.w3.org/2000/svg" xmlns:xlink="http://www.w3.org/1999/xlink">
  <defs>
    <polygon id="Star7" points="0 -9 1.7355 -3.6039 7.0365 -5.6114 3.8997 -0.89008 8.7744 2.0027 3.1273 2.494 3.905 8.1087 0 4 -3.905 8.1087 -3.1273 2.494 -8.7744 2.0027 -3.8997 -0.89008 -7.0365 -5.6114 -1.7355 -3.6039"/>
    <polygon id="Star5" points="0 -9 2.3511 -3.2361 8.5595 -2.7812 3.8042 1.2361 5.2901 7.2812 0 4 -5.2901 7.2812 -3.8042 1.2361 -8.5595 -2.7812 -2.3511 -3.2361"/>
  </defs>
  <path d="m0 0h30240v15120h-30240v-15120z" fill="#00008b"/>
  <use id="Commonwealth_Star" transform="matrix(252,0,0,252,7560,11340)" fill="#fff" xlink:href="#Star7"/>
  <use id="Star_Alpha_Crucis" transform="matrix(120,0,0,120,22680,12600)" fill="#fff" xlink:href="#Star7"/>
  <use id="Star_Beta_Crucis" transform="matrix(120,0,0,120,18900,6615)" fill="#fff" xlink:href="#Star7"/>
  <use id="Star_Gamma_Crucis" transform="matrix(120,0,0,120,22680,2520)" fill="#fff" xlink:href="#Star7"/>
  <use id="Star_Delta_Crucis" transform="matrix(120,0,0,120,26040,5607)" fill="#fff" xlink:href="#Star7"/>
  <use id="Star_Epsilon_Crucis" transform="matrix(70,0,0,70,24192,8190)" fill="#fff" xlink:href="#Star5"/>
  <path id="White_Cross" d="m6300 0h2520v2520h6300v2520h-6300v2520h-2520v-2520h-6300v-2520h6300v-2520z" fill="#fff"/>
  <path id="White_Diagonal" d="m0 0h1690.5l13430 6714.8v845.23h-1690.5l-13430-6714.8v-845.23z" fill="#fff"/>
  <use id="White_Diagonal_Flipped" transform="matrix(-1,0,0,1,15120,0)" fill="#fff" xlink:href="#White_Diagonal"/>
  <path id="Red_Cross" d="m6804 0h1512v3024h6804v1512h-6804v3024h-1512v-3024h-6804v-1512h6804v-3024z" fill="red"/>
  <path id="Red_Diagonals" d="m0 0 5040 2520h-1127l-3913-1956.5v-563.49zm15120 0h-1127l-5040 2520h1127l5040-2520z" fill="red"/>
  <use id="Red_Diagonals_Rotated" transform="matrix(-1,0,0,-1,15120,7560)" fill="red" xlink:href="#Red_Diagonals"/>
</svg>

<?xml version="1.0" encoding="UTF-8"?><svg xmlns="http://www.w3.org/2000/svg" xmlns:xlink="http://www.w3.org/1999/xlink" width="1280" height="640" viewBox="0 0 30240 15120"><defs id="defs6"><polygon points="0,-9 1.735535,-3.6038755 7.0364833,-5.6114082 3.8997116,-0.89008374 8.7743512,2.0026884 3.1273259,2.4939592 3.9049537,8.1087198 0,4 -3.9049537,8.1087198 -3.1273259,2.4939592 -8.7743512,2.0026884 -3.8997116,-0.89008374 -7.0364833,-5.6114082 -1.735535,-3.6038755 0,-9 " id="Star7"/><polygon points="0,-9 2.351141,-3.236068 8.5595086,-2.7811529 3.8042261,1.236068 5.2900673,7.2811529 0,4 -5.2900673,7.2811529 -3.8042261,1.236068 -8.5595086,-2.7811529 -2.351141,-3.236068 0,-9 " id="Star5"/></defs><path d="M 0,0 L 30240,0 L 30240,15120 L 0,15120 L 0,0 z" style="fill:#00008b"/><use transform="matrix(252,0,0,252,7560,11340)" id="Commonwealth_Star" style="fill:#fff" xlink:href="#Star7"/><use transform="matrix(120,0,0,120,22680,12600)" id="Star_Alpha_Crucis" style="fill:#fff" xlink:href="#Star7"/><use transform="matrix(120,0,0,120,18900,6615)" id="Star_Beta_Crucis" style="fill:#fff" xlink:href="#Star7"/><use transform="matrix(120,0,0,120,22680,2520)" id="Star_Gamma_Crucis" style="fill:#fff" xlink:href="#Star7"/><use transform="matrix(120,0,0,120,26040,5607)" id="Star_Delta_Crucis" style="fill:#fff" xlink:href="#Star7"/><use transform="matrix(70,0,0,70,24192,8190)" id="Star_Epsilon_Crucis" style="fill:#fff" xlink:href="#Star5"/><path d="M 6300,0 L 8820,0 L 8820,2520 L 15120,2520 L 15120,5040 L 8820,5040 L 8820,7560 L 6300,7560 L 6300,5040 L 0,5040 L 0,2520 L 6300,2520 L 6300,0 z" id="White_Cross" style="fill:#fff"/><path d="M 0,0 L 1690.4674,0 L 15120,6714.7663 L 15120,7560 L 13429.533,7560 L 0,845.2337 L 0,0 z" id="White_Diagonal" style="fill:#fff"/><use transform="matrix(-1,0,0,1,15120,0)" id="White_Diagonal_Flipped" style="fill:#fff" xlink:href="#White_Diagonal"/><path d="M 6804,0 L 8316,0 L 8316,3024 L 15120,3024 L 15120,4536 L 8316,4536 L 8316,7560 L 6804,7560 L 6804,4536 L 0,4536 L 0,3024 L 6804,3024 L 6804,0 z" id="Red_Cross" style="fill:red"/><path d="M 0,0 L 5040,2520 L 3913.0217,2520 L 0,563.48913 L 0,0 z M 15120,0 L 13993.022,0 L 8953.0217,2520 L 10080,2520 L 15120,0 z" id="Red_Diagonals" style="fill:red"/><use transform="matrix(-1,0,0,-1,15120,7560)" id="Red_Diagonals_Rotated" style="fill:red" xlink:href="#Red_Diagonals"/></svg>
